public/images/images/1.svg

<svg enable-background="new 0 0 100 100" viewBox="0 0 100 100" xmlns="http://www.w3.org/2000/svg"><path d="m25.3 50.7c-.1 0-.2 0-.3 0s-.2-.1-.2-.1l-24.6-24.8c-.1-.1-.2-.2-.2-.3s0-.3 0-.4.1-.2.2-.3.2-.1.4-.1h24.7.2c.1 0 .2.1.2.1.1.1.1.1.1.2v.2 24.8c0 .1 0 .3-.1.4s-.2.2-.3.2c.1.1 0 .1-.1.1zm-23-24.7 22.4 22.4v-22.4z"/><path d="m50 26h-24.7c-.2 0-.3-.1-.5-.2-.1-.1-.2-.3-.2-.5v-24.6c0-.1 0-.3.1-.4s.2-.2.3-.2c.2-.1.3-.1.4-.1s.2.1.3.2l24.7 24.7c.1.1.2.2.2.3v.4c-.1.1-.1.2-.2.3s-.3.1-.4.1zm-24-1.3h22.4l-22.4-22.4z"/><path d="m25.3 50.7c-.1 0-.2 0-.3 0-.1-.1-.2-.1-.3-.2s-.1-.2-.1-.4v-24.8c0-.2.1-.3.2-.5.1-.1.3-.2.5-.2h24.7c.1 0 .3 0 .4.1s.2.2.2.3.1.3 0 .4c0 .1-.1.2-.2.3l-24.6 24.8c-.1.1-.1.1-.2.1s-.2.1-.3.1zm.7-24.7v22.4l22.4-22.4z"/><path d="m25.3 26h-24.6c-.1 0-.3 0-.4-.1s-.2-.2-.2-.3c-.1-.1-.1-.3-.1-.4s.1-.2.2-.3l24.7-24.7c.1-.1.2-.2.3-.2h.4c.1 0 .2.1.3.2.1.2.1.3.1.5v24.7.3c0 .1-.1.2-.1.2-.1.1-.1.1-.2.1-.2 0-.3 0-.4 0zm-23-1.3h22.4v-22.4z"/><path d="m.7 26c-.1 0-.2 0-.2-.1-.1 0-.2-.1-.3-.2s-.2-.2-.2-.4v-24.6c0-.2.1-.3.2-.5s.3-.2.5-.2h24.7c.1 0 .3 0 .4.1s.2.2.2.3.1.2 0 .4c0 .1-.1.2-.2.3l-24.7 24.7c-.1.1-.2.2-.4.2zm.6-24.7v22.4l22.5-22.4z"/><path d="m74.7 50.7c-.2 0-.3-.1-.5-.2l-24.7-24.7c-.1-.1-.2-.2-.2-.3s0-.3 0-.4.1-.2.2-.3.2-.1.4-.1h24.7.2c.1 0 .2.1.2.1.1.1.1.1.1.2v.2 24.8c0 .1 0 .3-.1.4s-.2.2-.3.2c.1.1 0 .1 0 .1zm-23.1-24.7 22.4 22.4v-22.4z"/><path d="m99.3 26h-24.7c-.2 0-.3-.1-.5-.2-.1-.1-.2-.3-.2-.5v-24.6c0-.1 0-.3.1-.4s.2-.2.3-.2c.2-.1.3-.1.5-.1.1 0 .2.1.3.2l24.7 24.7c.1.1.2.2.2.3s0 .3 0 .4c-.1.1-.1.2-.2.3-.2.1-.4.1-.5.1zm-24-1.3h22.4l-22.4-22.4z"/><path d="m74.7 50.7c-.1 0-.2 0-.3 0-.1-.1-.2-.1-.3-.2-.1-.2-.1-.4-.1-.5v-24.7c0-.2.1-.3.2-.5.1-.1.3-.2.5-.2h24.7c.1 0 .3 0 .4.1s.2.2.2.3.1.3 0 .4c0 .1-.1.2-.2.3l-24.7 24.8c-.1.1-.1.1-.2.1s-.2.1-.2.1zm.6-24.7v22.4l22.4-22.4z"/><path d="m74.7 26h-24.7c-.1 0-.3 0-.4-.1s-.2-.2-.2-.3c-.1-.1-.1-.3 0-.4 0-.1.1-.2.2-.3l24.6-24.7c.1-.1.2-.2.3-.2h.4c.1 0 .2.1.3.2s.1.2.1.4v24.7.3c0 .1-.1.2-.1.2-.1.1-.1.1-.2.1-.2.1-.3.1-.3.1zm-23.1-1.3h22.4v-22.4z"/><path d="m74.7 100c-.2 0-.3-.1-.5-.2l-24.7-24.7c-.1-.1-.2-.2-.2-.3s0-.3 0-.4.1-.2.2-.3c.2-.1.3-.1.5-.1h24.7.2c.1 0 .2.1.2.1.1.1.1.1.1.2v.2 24.7c0 .1 0 .3-.1.4s-.2.2-.3.2c0 .2-.1.2-.1.2zm-23.1-24.7 22.4 22.5v-22.5z"/><path d="m99.3 75.3h-24.7c-.2 0-.3-.1-.5-.2 0-.1-.1-.2-.1-.4v-24.7c0-.1 0-.3.1-.4s.2-.2.3-.2.3-.1.4 0c.1 0 .2.1.3.2l24.7 24.7c.1.1.2.2.2.3s0 .3 0 .4c-.1.1-.1.2-.2.3-.2 0-.4 0-.5 0zm-24-1.3h22.4l-22.4-22.4z"/><path d="m74.7 100c-.1 0-.2 0-.3-.1-.1 0-.2-.1-.3-.2s-.1-.2-.1-.4v-24.6c0-.2.1-.3.2-.5.1-.1.3-.2.5-.2h24.7c.1 0 .3 0 .4.1s.2.2.2.3.1.2 0 .4c0 .1-.1.2-.2.3l-24.7 24.7c-.1.1-.1.1-.2.1-.1.1-.2.1-.2.1zm.6-24.7v22.4l22.4-22.4z"/><path d="m74.7 75.3h-24.7c-.1 0-.3 0-.4-.1s-.2-.2-.2-.3c-.1-.1-.1-.2 0-.4 0-.1.1-.2.2-.3l24.7-24.7c.1-.1.2-.2.3-.2h.4c.1 0 .2.1.3.2s.1.2.1.4v24.7c0 .1 0 .2-.1.3 0 .1-.1.2-.1.2s-.1.1-.2.1c-.2.1-.3.1-.3.1zm-23.1-1.3h22.4v-22.4z"/><path d="m25.3 100c-.2 0-.3-.1-.5-.2l-24.6-24.7c-.1-.1-.2-.2-.2-.3s0-.3 0-.4.1-.2.2-.3c.2-.1.3-.1.5-.1h24.7c.2 0 .3.1.5.2.1.1.2.3.2.5v24.7c0 .1 0 .3-.1.4s-.2.2-.3.2c-.2 0-.3 0-.4 0zm-23-24.7 22.4 22.4v-22.4z"/><path d="m50 75.3h-24.7c-.2 0-.3-.1-.5-.2-.1-.1-.2-.3-.2-.5v-24.6c0-.1 0-.3.1-.4s.2-.2.3-.2.3-.1.4 0c.1 0 .2.1.3.2l24.7 24.7c.1.1.2.2.2.3v.4c-.1.1-.1.2-.2.3-.1 0-.3 0-.4 0zm-24-1.3h22.4l-22.4-22.4z"/><path d="m25.3 100c-.1 0-.2 0-.3-.1-.1 0-.2-.1-.3-.2s-.1-.2-.1-.4v-24.6c0-.2.1-.3.2-.5.1-.1.3-.2.5-.2h24.7c.1 0 .3 0 .4.1s.2.2.2.3.1.2 0 .4c0 .1-.1.2-.2.3l-24.6 24.7c-.1.1-.3.2-.5.2zm.7-24.7v22.4l22.4-22.4z"/><path d="m25.3 75.3h-24.6c-.1 0-.3 0-.4-.1s-.2-.2-.2-.3c-.1-.1-.1-.2-.1-.4s.1-.2.2-.3l24.7-24.7c.1-.1.2-.2.3-.2h.4c.1 0 .2.1.3.2.1.2.1.4.1.5v24.7c0 .1 0 .2-.1.3 0 .1-.1.2-.1.2-.1.1-.1.1-.2.1s-.2 0-.3 0zm-23-1.3h22.4v-22.4z"/><path d="m50 75.3c-.2 0-.3-.1-.5-.2l-24.6-24.7c-.1-.1-.2-.2-.2-.3s0-.3 0-.4c.1-.1.1-.2.2-.3s.2-.1.4-.1h24.7c.2 0 .3.1.5.2.1.1.2.3.2.5v24.7c0 .1 0 .3-.1.4s-.2.2-.3.2-.2 0-.3 0zm-23.1-24.7 22.4 22.4v-22.3z"/><path d="m74.7 50.7h-24.7c-.2 0-.3-.1-.5-.2-.1-.1-.2-.3-.2-.5v-24.7c0-.1 0-.3.1-.4s.2-.2.3-.2.2-.1.4 0c.1 0 .2.1.3.2l24.7 24.7c.1.1.2.2.2.3s0 .3 0 .4-.1.2-.2.3c-.2 0-.3.1-.4.1zm-24-1.3h22.4l-22.5-22.5z"/><path d="m50 75.3c-.1 0-.2 0-.2-.1-.1 0-.2-.1-.3-.2s-.1-.2-.1-.4v-24.6c0-.2.1-.3.2-.5.1-.1.3-.2.5-.2h24.7c.1 0 .3 0 .4.1s.2.2.2.3c.1.1.1.3 0 .4 0 .1-.1.2-.2.3l-24.7 24.7c-.2.2-.3.2-.5.2zm.7-24.7v22.4l22.4-22.4z"/><path d="m50 50.7h-24.7c-.1 0-.3 0-.4-.1s-.2-.2-.2-.3-.1-.3 0-.4c0-.1.1-.2.2-.3l24.7-24.7c.1-.1.2-.2.3-.2h.4c.1.1.2.1.3.2s.1.2.1.4v24.7c0 .2-.1.3-.2.5-.2.1-.3.2-.5.2zm-23.1-1.3h22.4v-22.5z"/><path d="m25.3 100h-24.6c-.2 0-.3-.1-.5-.2-.1-.1-.2-.3-.2-.5v-24.6c0-.1 0-.3.1-.4s.2-.2.3-.2.2-.1.4 0c.1 0 .2.1.3.2l24.7 24.7c.1.1.2.2.2.3v.4c-.1.1-.1.2-.2.3-.2 0-.3 0-.5 0zm-24-1.3h22.4l-22.4-22.4z"/><path d="m99.3 100h-24.7c-.1 0-.3 0-.4-.1s-.2-.2-.2-.3-.1-.3 0-.4.1-.2.2-.3l24.7-24.7c.1-.1.2-.2.3-.2h.4c.1.1.2.1.3.2s.1.2.1.4v24.7.3c0 .1-.1.2-.1.2-.1.1-.1.1-.2.1-.2.1-.3.1-.4.1zm-23.1-1.3h22.4v-22.4z"/><path d="m99.3 26c-.2 0-.3-.1-.5-.2l-24.6-24.7c-.1-.1-.2-.2-.2-.3s0-.3 0-.4c.1-.1.1-.2.2-.3.2-.1.3-.1.4-.1h24.7.2c.1 0 .2.1.2.1.1.1.1.1.1.2v.2 24.7c0 .1 0 .3-.1.4s-.2.2-.3.2c.1.2 0 .2-.1.2zm-23.1-24.7 22.4 22.4v-22.4z"/></svg>

<svg version="1.1" id="Ebene_1" xmlns="http://www.w3.org/2000/svg" xmlns:xlink="http://www.w3.org/1999/xlink" x="0px" y="0px" viewBox="0 0 100 100" style="enable-background:new 0 0 100 100;" xml:space="preserve">
<g>
	<path d="M25.3,50.7c-0.1,0-0.2,0-0.3,0c-0.1,0-0.2-0.1-0.2-0.1L0.2,25.8C0.1,25.7,0,25.6,0,25.5c0-0.1,0-0.3,0-0.4
		c0-0.1,0.1-0.2,0.2-0.3s0.2-0.1,0.4-0.1h24.7c0.1,0,0.2,0,0.2,0c0.1,0,0.2,0.1,0.2,0.1c0.1,0.1,0.1,0.1,0.1,0.2c0,0.1,0,0.2,0,0.2
		V50c0,0.1,0,0.3-0.1,0.4c-0.1,0.1-0.2,0.2-0.3,0.2C25.5,50.7,25.4,50.7,25.3,50.7L25.3,50.7z M2.3,26l22.4,22.4V26L2.3,26z"/>
	<path d="M50,26H25.3c-0.2,0-0.3-0.1-0.5-0.2c-0.1-0.1-0.2-0.3-0.2-0.5V0.7c0-0.1,0-0.3,0.1-0.4
		c0.1-0.1,0.2-0.2,0.3-0.2C25.2,0,25.3,0,25.4,0c0.1,0,0.2,0.1,0.3,0.2l24.7,24.7c0.1,0.1,0.2,0.2,0.2,0.3c0,0.1,0,0.3,0,0.4
		c-0.1,0.1-0.1,0.2-0.2,0.3C50.3,26,50.1,26,50,26L50,26z M26,24.7h22.4L26,2.3V24.7z"/>
	<path d="M25.3,50.7c-0.1,0-0.2,0-0.3,0c-0.1-0.1-0.2-0.1-0.3-0.2c-0.1-0.1-0.1-0.2-0.1-0.4V25.3c0-0.2,0.1-0.3,0.2-0.5
		c0.1-0.1,0.3-0.2,0.5-0.2H50c0.1,0,0.3,0,0.4,0.1c0.1,0.1,0.2,0.2,0.2,0.3c0,0.1,0.1,0.3,0,0.4c0,0.1-0.1,0.2-0.2,0.3L25.8,50.5
		c-0.1,0.1-0.1,0.1-0.2,0.1C25.5,50.6,25.4,50.7,25.3,50.7L25.3,50.7z M26,26v22.4L48.4,26H26z"/>
	<path d="M25.3,26H0.7c-0.1,0-0.3,0-0.4-0.1s-0.2-0.2-0.2-0.3C0,25.5,0,25.3,0,25.2c0-0.1,0.1-0.2,0.2-0.3L24.9,0.2
		C25,0.1,25.1,0,25.2,0c0.1,0,0.3,0,0.4,0c0.1,0,0.2,0.1,0.3,0.2C26,0.4,26,0.5,26,0.7v24.7c0,0.1,0,0.2,0,0.3
		c0,0.1-0.1,0.2-0.1,0.2c-0.1,0.1-0.1,0.1-0.2,0.1C25.5,26,25.4,26,25.3,26L25.3,26z M2.3,24.7h22.4V2.3L2.3,24.7z"/>
	<path d="M0.7,26c-0.1,0-0.2,0-0.2-0.1c-0.1,0-0.2-0.1-0.3-0.2C0.1,25.6,0,25.5,0,25.3V0.7c0-0.2,0.1-0.3,0.2-0.5
		S0.5,0,0.7,0h24.7c0.1,0,0.3,0,0.4,0.1c0.1,0.1,0.2,0.2,0.2,0.3c0,0.1,0.1,0.2,0,0.4c0,0.1-0.1,0.2-0.2,0.3L1.1,25.8
		C1,25.9,0.9,26,0.7,26L0.7,26z M1.3,1.3v22.4L23.8,1.3H1.3z"/>
	<path d="M74.7,50.7c-0.2,0-0.3-0.1-0.5-0.2L49.5,25.8c-0.1-0.1-0.2-0.2-0.2-0.3c0-0.1,0-0.3,0-0.4
		c0-0.1,0.1-0.2,0.2-0.3c0.1-0.1,0.2-0.1,0.4-0.1h24.7c0.1,0,0.2,0,0.2,0c0.1,0,0.2,0.1,0.2,0.1c0.1,0.1,0.1,0.1,0.1,0.2
		c0,0.1,0,0.2,0,0.2V50c0,0.1,0,0.3-0.1,0.4c-0.1,0.1-0.2,0.2-0.3,0.2C74.8,50.7,74.7,50.7,74.7,50.7L74.7,50.7z M51.6,26L74,48.4
		V26L51.6,26z"/>
	<path d="M99.3,26H74.6c-0.2,0-0.3-0.1-0.5-0.2c-0.1-0.1-0.2-0.3-0.2-0.5V0.7c0-0.1,0-0.3,0.1-0.4
		c0.1-0.1,0.2-0.2,0.3-0.2C74.5,0,74.6,0,74.8,0c0.1,0,0.2,0.1,0.3,0.2l24.7,24.7c0.1,0.1,0.2,0.2,0.2,0.3s0,0.3,0,0.4
		c-0.1,0.1-0.1,0.2-0.2,0.3C99.6,26,99.4,26,99.3,26z M75.3,24.7h22.4L75.3,2.3L75.3,24.7z"/>
	<path d="M74.7,50.7c-0.1,0-0.2,0-0.3,0c-0.1-0.1-0.2-0.1-0.3-0.2C74,50.3,74,50.1,74,50V25.3c0-0.2,0.1-0.3,0.2-0.5
		c0.1-0.1,0.3-0.2,0.5-0.2h24.7c0.1,0,0.3,0,0.4,0.1c0.1,0.1,0.2,0.2,0.2,0.3c0,0.1,0.1,0.3,0,0.4c0,0.1-0.1,0.2-0.2,0.3L75.1,50.5
		c-0.1,0.1-0.1,0.1-0.2,0.1C74.8,50.6,74.7,50.7,74.7,50.7L74.7,50.7z M75.3,26v22.4L97.7,26H75.3z"/>
	<path d="M74.7,26H50c-0.1,0-0.3,0-0.4-0.1s-0.2-0.2-0.2-0.3c-0.1-0.1-0.1-0.3,0-0.4c0-0.1,0.1-0.2,0.2-0.3L74.2,0.2
		C74.3,0.1,74.4,0,74.5,0c0.1,0,0.3,0,0.4,0c0.1,0,0.2,0.1,0.3,0.2c0.1,0.1,0.1,0.2,0.1,0.4v24.7c0,0.1,0,0.2,0,0.3
		c0,0.1-0.1,0.2-0.1,0.2c-0.1,0.1-0.1,0.1-0.2,0.1C74.8,26,74.7,26,74.7,26L74.7,26z M51.6,24.7H74V2.3L51.6,24.7z"/>
	<path d="M74.7,100c-0.2,0-0.3-0.1-0.5-0.2L49.5,75.1c-0.1-0.1-0.2-0.2-0.2-0.3c0-0.1,0-0.3,0-0.4
		c0-0.1,0.1-0.2,0.2-0.3C49.7,74,49.8,74,50,74h24.7c0.1,0,0.2,0,0.2,0c0.1,0,0.2,0.1,0.2,0.1c0.1,0.1,0.1,0.1,0.1,0.2
		c0,0.1,0,0.2,0,0.2v24.7c0,0.1,0,0.3-0.1,0.4c-0.1,0.1-0.2,0.2-0.3,0.2C74.8,100,74.7,100,74.7,100L74.7,100z M51.6,75.3L74,97.8
		V75.3L51.6,75.3z"/>
	<path d="M99.3,75.3H74.6c-0.2,0-0.3-0.1-0.5-0.2C74.1,75,74,74.9,74,74.7V50c0-0.1,0-0.3,0.1-0.4
		c0.1-0.1,0.2-0.2,0.3-0.2c0.1,0,0.3-0.1,0.4,0c0.1,0,0.2,0.1,0.3,0.2l24.7,24.7c0.1,0.1,0.2,0.2,0.2,0.3s0,0.3,0,0.4
		c-0.1,0.1-0.1,0.2-0.2,0.3C99.6,75.3,99.4,75.3,99.3,75.3z M75.3,74h22.4L75.3,51.6L75.3,74z"/>
	<path d="M74.7,100c-0.1,0-0.2,0-0.3-0.1c-0.1,0-0.2-0.1-0.3-0.2C74,99.6,74,99.5,74,99.3V74.7c0-0.2,0.1-0.3,0.2-0.5
		c0.1-0.1,0.3-0.2,0.5-0.2h24.7c0.1,0,0.3,0,0.4,0.1c0.1,0.1,0.2,0.2,0.2,0.3c0,0.1,0.1,0.2,0,0.4c0,0.1-0.1,0.2-0.2,0.3L75.1,99.8
		c-0.1,0.1-0.1,0.1-0.2,0.1C74.8,100,74.7,100,74.7,100z M75.3,75.3v22.4l22.4-22.4H75.3z"/>
	<path d="M74.7,75.3H50c-0.1,0-0.3,0-0.4-0.1c-0.1-0.1-0.2-0.2-0.2-0.3c-0.1-0.1-0.1-0.2,0-0.4c0-0.1,0.1-0.2,0.2-0.3
		l24.7-24.7c0.1-0.1,0.2-0.2,0.3-0.2c0.1,0,0.3,0,0.4,0c0.1,0,0.2,0.1,0.3,0.2c0.1,0.1,0.1,0.2,0.1,0.4v24.7c0,0.1,0,0.2-0.1,0.3
		c0,0.1-0.1,0.2-0.1,0.2s-0.1,0.1-0.2,0.1C74.8,75.3,74.7,75.3,74.7,75.3L74.7,75.3z M51.6,74H74V51.6L51.6,74z"/>
	<path d="M25.3,100c-0.2,0-0.3-0.1-0.5-0.2L0.2,75.1C0.1,75,0,74.9,0,74.8c0-0.1,0-0.3,0-0.4c0-0.1,0.1-0.2,0.2-0.3
		C0.4,74,0.5,74,0.7,74h24.7c0.2,0,0.3,0.1,0.5,0.2c0.1,0.1,0.2,0.3,0.2,0.5v24.7c0,0.1,0,0.3-0.1,0.4c-0.1,0.1-0.2,0.2-0.3,0.2
		C25.5,100,25.4,100,25.3,100L25.3,100z M2.3,75.3l22.4,22.4V75.3L2.3,75.3z"/>
	<path d="M50,75.3H25.3c-0.2,0-0.3-0.1-0.5-0.2c-0.1-0.1-0.2-0.3-0.2-0.5V50c0-0.1,0-0.3,0.1-0.4
		c0.1-0.1,0.2-0.2,0.3-0.2c0.1,0,0.3-0.1,0.4,0c0.1,0,0.2,0.1,0.3,0.2l24.7,24.7c0.1,0.1,0.2,0.2,0.2,0.3c0,0.1,0,0.3,0,0.4
		c-0.1,0.1-0.1,0.2-0.2,0.3C50.3,75.3,50.1,75.3,50,75.3z M26,74h22.4L26,51.6V74z"/>
	<path d="M25.3,100c-0.1,0-0.2,0-0.3-0.1c-0.1,0-0.2-0.1-0.3-0.2c-0.1-0.1-0.1-0.2-0.1-0.4V74.7c0-0.2,0.1-0.3,0.2-0.5
		c0.1-0.1,0.3-0.2,0.5-0.2H50c0.1,0,0.3,0,0.4,0.1c0.1,0.1,0.2,0.2,0.2,0.3c0,0.1,0.1,0.2,0,0.4c0,0.1-0.1,0.2-0.2,0.3L25.8,99.8
		C25.7,99.9,25.5,100,25.3,100L25.3,100z M26,75.3v22.4l22.4-22.4H26z"/>
	<path d="M25.3,75.3H0.7c-0.1,0-0.3,0-0.4-0.1c-0.1-0.1-0.2-0.2-0.2-0.3C0,74.8,0,74.7,0,74.5s0.1-0.2,0.2-0.3
		l24.7-24.7c0.1-0.1,0.2-0.2,0.3-0.2c0.1,0,0.3,0,0.4,0c0.1,0,0.2,0.1,0.3,0.2C26,49.7,26,49.9,26,50v24.7c0,0.1,0,0.2-0.1,0.3
		c0,0.1-0.1,0.2-0.1,0.2c-0.1,0.1-0.1,0.1-0.2,0.1C25.5,75.3,25.4,75.3,25.3,75.3L25.3,75.3z M2.3,74h22.4V51.6L2.3,74z"/>
	<path d="M50,75.3c-0.2,0-0.3-0.1-0.5-0.2L24.9,50.4c-0.1-0.1-0.2-0.2-0.2-0.3c0-0.1,0-0.3,0-0.4
		c0.1-0.1,0.1-0.2,0.2-0.3c0.1-0.1,0.2-0.1,0.4-0.1H50c0.2,0,0.3,0.1,0.5,0.2c0.1,0.1,0.2,0.3,0.2,0.5v24.7c0,0.1,0,0.3-0.1,0.4
		c-0.1,0.1-0.2,0.2-0.3,0.2C50.2,75.3,50.1,75.3,50,75.3L50,75.3z M26.9,50.6l22.4,22.4V50.7L26.9,50.6z"/>
	<path d="M74.7,50.7H50c-0.2,0-0.3-0.1-0.5-0.2c-0.1-0.1-0.2-0.3-0.2-0.5V25.3c0-0.1,0-0.3,0.1-0.4
		c0.1-0.1,0.2-0.2,0.3-0.2c0.1,0,0.2-0.1,0.4,0c0.1,0,0.2,0.1,0.3,0.2l24.7,24.7c0.1,0.1,0.2,0.2,0.2,0.3s0,0.3,0,0.4
		c0,0.1-0.1,0.2-0.2,0.3C74.9,50.6,74.8,50.7,74.7,50.7L74.7,50.7z M50.7,49.4h22.4L50.6,26.9L50.7,49.4z"/>
	<path d="M50,75.3c-0.1,0-0.2,0-0.2-0.1c-0.1,0-0.2-0.1-0.3-0.2c-0.1-0.1-0.1-0.2-0.1-0.4V50c0-0.2,0.1-0.3,0.2-0.5
		c0.1-0.1,0.3-0.2,0.5-0.2h24.7c0.1,0,0.3,0,0.4,0.1c0.1,0.1,0.2,0.2,0.2,0.3c0.1,0.1,0.1,0.3,0,0.4c0,0.1-0.1,0.2-0.2,0.3
		L50.5,75.1C50.3,75.3,50.2,75.3,50,75.3L50,75.3z M50.7,50.6v22.4l22.4-22.4H50.7z"/>
	<path d="M50,50.7H25.3c-0.1,0-0.3,0-0.4-0.1c-0.1-0.1-0.2-0.2-0.2-0.3c0-0.1-0.1-0.3,0-0.4c0-0.1,0.1-0.2,0.2-0.3
		l24.7-24.7c0.1-0.1,0.2-0.2,0.3-0.2c0.1,0,0.3,0,0.4,0c0.1,0.1,0.2,0.1,0.3,0.2c0.1,0.1,0.1,0.2,0.1,0.4V50c0,0.2-0.1,0.3-0.2,0.5
		C50.3,50.6,50.2,50.7,50,50.7L50,50.7z M26.9,49.4h22.4V26.9L26.9,49.4z"/>
	<path d="M25.3,100H0.7c-0.2,0-0.3-0.1-0.5-0.2C0.1,99.7,0,99.5,0,99.3V74.7c0-0.1,0-0.3,0.1-0.4
		c0.1-0.1,0.2-0.2,0.3-0.2c0.1,0,0.2-0.1,0.4,0c0.1,0,0.2,0.1,0.3,0.2l24.7,24.7c0.1,0.1,0.2,0.2,0.2,0.3c0,0.1,0,0.3,0,0.4
		c-0.1,0.1-0.1,0.2-0.2,0.3C25.6,100,25.5,100,25.3,100L25.3,100z M1.3,98.7h22.4L1.3,76.3V98.7z"/>
	<path d="M99.3,100H74.6c-0.1,0-0.3,0-0.4-0.1c-0.1-0.1-0.2-0.2-0.2-0.3c0-0.1-0.1-0.3,0-0.4s0.1-0.2,0.2-0.3l24.7-24.7
		c0.1-0.1,0.2-0.2,0.3-0.2c0.1,0,0.3,0,0.4,0c0.1,0.1,0.2,0.1,0.3,0.2c0.1,0.1,0.1,0.2,0.1,0.4v24.7c0,0.1,0,0.2,0,0.3
		c0,0.1-0.1,0.2-0.1,0.2c-0.1,0.1-0.1,0.1-0.2,0.1C99.5,100,99.4,100,99.3,100L99.3,100z M76.2,98.7h22.4V76.3L76.2,98.7z"/>
	<path d="M99.3,26c-0.2,0-0.3-0.1-0.5-0.2L74.2,1.1C74.1,1,74,0.9,74,0.8c0-0.1,0-0.3,0-0.4c0.1-0.1,0.1-0.2,0.2-0.3
		C74.4,0,74.5,0,74.6,0h24.7c0.1,0,0.2,0,0.2,0c0.1,0,0.2,0.1,0.2,0.1c0.1,0.1,0.1,0.1,0.1,0.2c0,0.1,0,0.2,0,0.2v24.7
		c0,0.1,0,0.3-0.1,0.4c-0.1,0.1-0.2,0.2-0.3,0.2C99.5,26,99.4,26,99.3,26L99.3,26z M76.2,1.3l22.4,22.4V1.3L76.2,1.3z"/>
</g>
</svg>
